Hatter-kde/actions/16/labplot-editgrid.svg

<?xml version="1.0" encoding="UTF-8"?>
<svg viewBox="0 0 16 16" xmlns="http://www.w3.org/2000/svg">
 <defs id="defs3051">
  <style id="current-color-scheme" type="text/css">.ColorScheme-Text {
        color:#363636;
      }</style>
 </defs>
 <path class="ColorScheme-Text" d="m2 2v12h12v-12h-12zm1 1h4v4h-4v-4zm5 0h5v4h-5v-4zm-2.9609 1a1 1 0 0 0-0.72852 0.27539 1 1 0 0 0-0.18555 1.209 1 1 0 0 0 1.125 0.48438 1 1 0 0 0 0.75-0.96875h-1l0.5293-0.84766a1 1 0 0 0-0.49023-0.15234zm-2.0391 4h4v5h-4v-5zm5 0h5v5h-5v-5zm3 1v3h1v-3h-1zm-2 2v1h1v-1h-1z" fill="currentColor"/>
</svg>

<svg xmlns="http://www.w3.org/2000/svg" viewBox="0 0 16 16">
  <defs id="defs3051">
    <style type="text/css" id="current-color-scheme">
      .ColorScheme-Text {
        color:#363636;
      }
      </style>
  </defs>
    <path
       style="fill:currentColor;fill-opacity:1;stroke:none" 
       d="M 2 2 L 2 14 L 14 14 L 14 2 L 2 2 z M 3 3 L 7 3 L 7 7 L 3 7 L 3 3 z M 8 3 L 13 3 L 13 7 L 8 7 L 8 3 z M 5.0390625 4 A 1 1 0 0 0 4.3105469 4.2753906 A 1 1 0 0 0 4.125 5.484375 A 1 1 0 0 0 5.25 5.96875 A 1 1 0 0 0 6 5 L 5 5 L 5.5292969 4.1523438 A 1 1 0 0 0 5.0390625 4 z M 3 8 L 7 8 L 7 13 L 3 13 L 3 8 z M 8 8 L 13 8 L 13 13 L 8 13 L 8 8 z M 11 9 L 11 12 L 12 12 L 12 9 L 11 9 z M 9 11 L 9 12 L 10 12 L 10 11 L 9 11 z "
        class="ColorScheme-Text" />
</svg>
